X: 1
T: The Frost is All Over
R: jig
M: 6/8
L: 1/8
K: Dmaj
def edB |AFD E2D|EAA AFA|Bcd ecA|
def edB|AFD E2D|EAA AFA|Bdc d2:|
f2f afd|g2g bag|f2f afd|gfg efg|
f2f afd|g2g bag|f2f ede|fdc d2:|
